( Made using CamBam - http://www.cambam.co.uk )
( mains monitor case 12/22/2015 2:22:05 PM )
( T11 : 1.0 )
G21 G90 G91.1 G64 G40
G0 Z3.0
( T11 : 1.0 )
T11 M6
( Spot Drill )
G17
M3 S1000
G0 X29.2447 Y3.4037
G98
G81 X29.2447 Y3.4037 Z-1.0 R3.0 F50.0
G81 X46.3744 Y2.3455 Z-1.0
G81 X50.0586 Y11.9551 Z-1.0
G81 X76.1223 Y33.7147 Z-1.0
G81 X78.5353 Y44.298 Z-1.0
G81 X114.3276 Y33.3757 Z-1.0
G81 X114.4785 Y18.6014 Z-1.0
G81 X94.0573 Y3.4037 Z-1.0
G81 X11.4493 Y2.3455 Z-1.0
G81 X8.0217 Y11.9551 Z-1.0
G81 Y71.9415 Z-1.0
G81 X8.0219 Y103.9454 Z-1.0
G81 X11.4493 Y113.8232 Z-1.0
G81 X29.2449 Y112.412 Z-1.0
G81 X46.3744 Y113.8232 Z-1.0
G81 X50.0588 Y103.9454 Z-1.0
G81 X94.0573 Y112.412 Z-1.0
G80
G0 Z3.0
M5
M30
