( Made using CamBam - http://www.cambam.co.uk )
( mains monitor case 12/22/2015 2:22:17 PM )
( T12 : 2.5 )
G21 G90 G91.1 G64 G40
G0 Z3.0
( T12 : 2.5 )
T12 M6
( 2.5mm Drill )
G17
M3 S1000
G0 X8.0219 Y103.9454
G98
G83 X8.0219 Y103.9454 Z-23.0 Q5.0 R3.0 F50.0
G83 X29.2449 Y112.412 Z-23.0
G83 X50.0588 Y103.9454 Z-23.0
G83 X8.0217 Y71.9415 Z-23.0
G83 Y11.9551 Z-23.0
G83 X29.2447 Y3.4037 Z-23.0
G83 X50.0586 Y11.9551 Z-23.0
G80
G0 Z3.0
M5
M30
