( Made using CamBam - http://www.cambam.co.uk )
( mains monitor case 12/22/2015 2:22:52 PM )
( T8 : 8.0 )
G21 G90 G91.1 G64 G40
G0 Z3.0
( T8 : 8.0 )
T8 M6
( Pocket1 )
G17
M3 S1000
G0 X28.6 Y32.4912
G0 Z1.0
G1 F50.0 Z-2.0
G1 F150.0 X29.4382
G1 X29.4383 Y83.3246
G1 X28.6001
G1 X28.6 Y32.4912
G1 F50.0 X26.2
G1 F150.0 Y30.0912
G1 X31.8382
G1 X31.8383 Y85.7246
G1 X26.2001
G1 X26.2 Y32.4912
G1 F50.0 X21.4
G1 F150.0 Y25.2912
G1 X36.6382
G1 X36.6383 Y90.5246
G1 X21.4001
G1 X21.4 Y32.4912
G1 F50.0 X16.6
G1 F150.0 Y20.4912
G1 X41.4382
G1 X41.4383 Y95.3246
G1 X16.6001
G1 X16.6 Y32.4912
G1 F50.0 X11.8
G1 F150.0 Y15.6912
G1 X46.2382
G1 X46.2383 Y100.1246
G1 X11.8002
G1 X11.8 Y32.4912
G1 F50.0 X7.0
G1 F150.0 Y11.2415
G2 X7.041 Y10.9335 I-3.9414 J-0.682
G2 X7.0426 Y10.9319 I-2.8276 J-2.8292
G2 X7.3487 Y10.8912 I-0.3739 J-3.9825
G1 X50.7015
G2 X51.0382 Y10.9325 I0.6556 J-3.9459
G1 X51.0383 Y104.9246
G1 X51.0117
G1 X7.0415
G2 X7.0002 Y104.5883 I-3.9872 J0.3193
G1 X7.0 Y32.4912
G0 Z3.0
G0 X28.6
G0 Z-1.0
G1 F50.0 Z-4.0
G1 F150.0 X29.4382
G1 X29.4383 Y83.3246
G1 X28.6001
G1 X28.6 Y32.4912
G1 F50.0 X26.2
G1 F150.0 Y30.0912
G1 X31.8382
G1 X31.8383 Y85.7246
G1 X26.2001
G1 X26.2 Y32.4912
G1 F50.0 X21.4
G1 F150.0 Y25.2912
G1 X36.6382
G1 X36.6383 Y90.5246
G1 X21.4001
G1 X21.4 Y32.4912
G1 F50.0 X16.6
G1 F150.0 Y20.4912
G1 X41.4382
G1 X41.4383 Y95.3246
G1 X16.6001
G1 X16.6 Y32.4912
G1 F50.0 X11.8
G1 F150.0 Y15.6912
G1 X46.2382
G1 X46.2383 Y100.1246
G1 X11.8002
G1 X11.8 Y32.4912
G1 F50.0 X7.0
G1 F150.0 Y11.2415
G2 X7.041 Y10.9335 I-3.9414 J-0.682
G2 X7.0426 Y10.9319 I-2.8276 J-2.8292
G2 X7.3487 Y10.8912 I-0.3739 J-3.9825
G1 X50.7015
G2 X51.0382 Y10.9325 I0.6556 J-3.9459
G1 X51.0383 Y104.9246
G1 X51.0117
G1 X7.0415
G2 X7.0002 Y104.5883 I-3.9872 J0.3193
G1 X7.0 Y32.4912
G0 Z3.0
G0 X28.6
G0 Z-3.0
G1 F50.0 Z-6.0
G1 F150.0 X29.4382
G1 X29.4383 Y83.3246
G1 X28.6001
G1 X28.6 Y32.4912
G1 F50.0 X26.2
G1 F150.0 Y30.0912
G1 X31.8382
G1 X31.8383 Y85.7246
G1 X26.2001
G1 X26.2 Y32.4912
G1 F50.0 X21.4
G1 F150.0 Y25.2912
G1 X36.6382
G1 X36.6383 Y90.5246
G1 X21.4001
G1 X21.4 Y32.4912
G1 F50.0 X16.6
G1 F150.0 Y20.4912
G1 X41.4382
G1 X41.4383 Y95.3246
G1 X16.6001
G1 X16.6 Y32.4912
G1 F50.0 X11.8
G1 F150.0 Y15.6912
G1 X46.2382
G1 X46.2383 Y100.1246
G1 X11.8002
G1 X11.8 Y32.4912
G1 F50.0 X7.0
G1 F150.0 Y11.2415
G2 X7.041 Y10.9335 I-3.9414 J-0.682
G2 X7.0426 Y10.9319 I-2.8276 J-2.8292
G2 X7.3487 Y10.8912 I-0.3739 J-3.9825
G1 X50.7015
G2 X51.0382 Y10.9325 I0.6556 J-3.9459
G1 X51.0383 Y104.9246
G1 X51.0117
G1 X7.0415
G2 X7.0002 Y104.5883 I-3.9872 J0.3193
G1 X7.0 Y32.4912
G0 Z3.0
G0 X28.6
G0 Z-5.0
G1 F50.0 Z-8.0
G1 F150.0 X29.4382
G1 X29.4383 Y83.3246
G1 X28.6001
G1 X28.6 Y32.4912
G1 F50.0 X26.2
G1 F150.0 Y30.0912
G1 X31.8382
G1 X31.8383 Y85.7246
G1 X26.2001
G1 X26.2 Y32.4912
G1 F50.0 X21.4
G1 F150.0 Y25.2912
G1 X36.6382
G1 X36.6383 Y90.5246
G1 X21.4001
G1 X21.4 Y32.4912
G1 F50.0 X16.6
G1 F150.0 Y20.4912
G1 X41.4382
G1 X41.4383 Y95.3246
G1 X16.6001
G1 X16.6 Y32.4912
G1 F50.0 X11.8
G1 F150.0 Y15.6912
G1 X46.2382
G1 X46.2383 Y100.1246
G1 X11.8002
G1 X11.8 Y32.4912
G1 F50.0 X7.0
G1 F150.0 Y11.2415
G2 X7.041 Y10.9335 I-3.9414 J-0.682
G2 X7.0426 Y10.9319 I-2.8276 J-2.8292
G2 X7.3487 Y10.8912 I-0.3739 J-3.9825
G1 X50.7015
G2 X51.0382 Y10.9325 I0.6556 J-3.9459
G1 X51.0383 Y104.9246
G1 X51.0117
G1 X7.0415
G2 X7.0002 Y104.5883 I-3.9872 J0.3193
G1 X7.0 Y32.4912
G0 Z3.0
G0 X28.6
G0 Z-7.0
G1 F50.0 Z-10.0
G1 F150.0 X29.4382
G1 X29.4383 Y83.3246
G1 X28.6001
G1 X28.6 Y32.4912
G1 F50.0 X26.2
G1 F150.0 Y30.0912
G1 X31.8382
G1 X31.8383 Y85.7246
G1 X26.2001
G1 X26.2 Y32.4912
G1 F50.0 X21.4
G1 F150.0 Y25.2912
G1 X36.6382
G1 X36.6383 Y90.5246
G1 X21.4001
G1 X21.4 Y32.4912
G1 F50.0 X16.6
G1 F150.0 Y20.4912
G1 X41.4382
G1 X41.4383 Y95.3246
G1 X16.6001
G1 X16.6 Y32.4912
G1 F50.0 X11.8
G1 F150.0 Y15.6912
G1 X46.2382
G1 X46.2383 Y100.1246
G1 X11.8002
G1 X11.8 Y32.4912
G1 F50.0 X7.0
G1 F150.0 Y11.2415
G2 X7.041 Y10.9335 I-3.9414 J-0.682
G2 X7.0426 Y10.9319 I-2.8276 J-2.8292
G2 X7.3487 Y10.8912 I-0.3739 J-3.9825
G1 X50.7015
G2 X51.0382 Y10.9325 I0.6556 J-3.9459
G1 X51.0383 Y104.9246
G1 X51.0117
G1 X7.0415
G2 X7.0002 Y104.5883 I-3.9872 J0.3193
G1 X7.0 Y32.4912
G0 Z3.0
G0 X28.6
G0 Z-9.0
G1 F50.0 Z-12.0
G1 F150.0 X29.4382
G1 X29.4383 Y83.3246
G1 X28.6001
G1 X28.6 Y32.4912
G1 F50.0 X26.2
G1 F150.0 Y30.0912
G1 X31.8382
G1 X31.8383 Y85.7246
G1 X26.2001
G1 X26.2 Y32.4912
G1 F50.0 X21.4
G1 F150.0 Y25.2912
G1 X36.6382
G1 X36.6383 Y90.5246
G1 X21.4001
G1 X21.4 Y32.4912
G1 F50.0 X16.6
G1 F150.0 Y20.4912
G1 X41.4382
G1 X41.4383 Y95.3246
G1 X16.6001
G1 X16.6 Y32.4912
G1 F50.0 X11.8
G1 F150.0 Y15.6912
G1 X46.2382
G1 X46.2383 Y100.1246
G1 X11.8002
G1 X11.8 Y32.4912
G1 F50.0 X7.0
G1 F150.0 Y11.2415
G2 X7.041 Y10.9335 I-3.9414 J-0.682
G2 X7.0426 Y10.9319 I-2.8276 J-2.8292
G2 X7.3487 Y10.8912 I-0.3739 J-3.9825
G1 X50.7015
G2 X51.0382 Y10.9325 I0.6556 J-3.9459
G1 X51.0383 Y104.9246
G1 X51.0117
G1 X7.0415
G2 X7.0002 Y104.5883 I-3.9872 J0.3193
G1 X7.0 Y32.4912
G0 Z3.0
G0 X28.6
G0 Z-11.0
G1 F50.0 Z-14.0
G1 F150.0 X29.4382
G1 X29.4383 Y83.3246
G1 X28.6001
G1 X28.6 Y32.4912
G1 F50.0 X26.2
G1 F150.0 Y30.0912
G1 X31.8382
G1 X31.8383 Y85.7246
G1 X26.2001
G1 X26.2 Y32.4912
G1 F50.0 X21.4
G1 F150.0 Y25.2912
G1 X36.6382
G1 X36.6383 Y90.5246
G1 X21.4001
G1 X21.4 Y32.4912
G1 F50.0 X16.6
G1 F150.0 Y20.4912
G1 X41.4382
G1 X41.4383 Y95.3246
G1 X16.6001
G1 X16.6 Y32.4912
G1 F50.0 X11.8
G1 F150.0 Y15.6912
G1 X46.2382
G1 X46.2383 Y100.1246
G1 X11.8002
G1 X11.8 Y32.4912
G1 F50.0 X7.0
G1 F150.0 Y11.2415
G2 X7.041 Y10.9335 I-3.9414 J-0.682
G2 X7.0426 Y10.9319 I-2.8276 J-2.8292
G2 X7.3487 Y10.8912 I-0.3739 J-3.9825
G1 X50.7015
G2 X51.0382 Y10.9325 I0.6556 J-3.9459
G1 X51.0383 Y104.9246
G1 X51.0117
G1 X7.0415
G2 X7.0002 Y104.5883 I-3.9872 J0.3193
G1 X7.0 Y32.4912
G0 Z3.0
G0 X28.6
G0 Z-13.0
G1 F50.0 Z-15.0
G1 F150.0 X29.4382
G1 X29.4383 Y83.3246
G1 X28.6001
G1 X28.6 Y32.4912
G1 F50.0 X26.2
G1 F150.0 Y30.0912
G1 X31.8382
G1 X31.8383 Y85.7246
G1 X26.2001
G1 X26.2 Y32.4912
G1 F50.0 X21.4
G1 F150.0 Y25.2912
G1 X36.6382
G1 X36.6383 Y90.5246
G1 X21.4001
G1 X21.4 Y32.4912
G1 F50.0 X16.6
G1 F150.0 Y20.4912
G1 X41.4382
G1 X41.4383 Y95.3246
G1 X16.6001
G1 X16.6 Y32.4912
G1 F50.0 X11.8
G1 F150.0 Y15.6912
G1 X46.2382
G1 X46.2383 Y100.1246
G1 X11.8002
G1 X11.8 Y32.4912
G1 F50.0 X7.0
G1 F150.0 Y11.2415
G2 X7.041 Y10.9335 I-3.9414 J-0.682
G2 X7.0426 Y10.9319 I-2.8276 J-2.8292
G2 X7.3487 Y10.8912 I-0.3739 J-3.9825
G1 X50.7015
G2 X51.0382 Y10.9325 I0.6556 J-3.9459
G1 X51.0383 Y104.9246
G1 X51.0117
G1 X7.0415
G2 X7.0002 Y104.5883 I-3.9872 J0.3193
G1 X7.0 Y32.4912
( Pocket2 )
S1000
G0 Z3.0
G0 X96.1023 Y31.0913
G0 Z1.0
G1 F50.0 Z-2.0
G1 F150.0 Y84.7248
G1 X92.4642
G1 Y31.0913
G1 X96.1023
G1 F50.0 Y26.2913
G1 F150.0 X100.9023
G1 Y89.5248
G1 X87.6642
G1 Y26.2913
G1 X96.1023
G1 F50.0 Y21.4913
G1 F150.0 X105.7023
G1 Y94.3248
G1 X82.8642
G1 Y21.4913
G1 X96.1023
G1 F50.0 Y16.6913
G1 F150.0 X110.5023
G1 Y99.1248
G1 X78.0642
G1 Y16.6913
G1 X96.1023
G1 F50.0 Y11.8913
G1 F150.0 X115.3023
G1 Y103.9248
G1 X73.2642
G1 Y11.8913
G1 X96.1023
G0 Z3.0
G0 Y31.0913
G0 Z-1.0
G1 F50.0 Z-4.0
G1 F150.0 Y84.7248
G1 X92.4642
G1 Y31.0913
G1 X96.1023
G1 F50.0 Y26.2913
G1 F150.0 X100.9023
G1 Y89.5248
G1 X87.6642
G1 Y26.2913
G1 X96.1023
G1 F50.0 Y21.4913
G1 F150.0 X105.7023
G1 Y94.3248
G1 X82.8642
G1 Y21.4913
G1 X96.1023
G1 F50.0 Y16.6913
G1 F150.0 X110.5023
G1 Y99.1248
G1 X78.0642
G1 Y16.6913
G1 X96.1023
G1 F50.0 Y11.8913
G1 F150.0 X115.3023
G1 Y103.9248
G1 X73.2642
G1 Y11.8913
G1 X96.1023
G0 Z3.0
G0 Y31.0913
G0 Z-3.0
G1 F50.0 Z-6.0
G1 F150.0 Y84.7248
G1 X92.4642
G1 Y31.0913
G1 X96.1023
G1 F50.0 Y26.2913
G1 F150.0 X100.9023
G1 Y89.5248
G1 X87.6642
G1 Y26.2913
G1 X96.1023
G1 F50.0 Y21.4913
G1 F150.0 X105.7023
G1 Y94.3248
G1 X82.8642
G1 Y21.4913
G1 X96.1023
G1 F50.0 Y16.6913
G1 F150.0 X110.5023
G1 Y99.1248
G1 X78.0642
G1 Y16.6913
G1 X96.1023
G1 F50.0 Y11.8913
G1 F150.0 X115.3023
G1 Y103.9248
G1 X73.2642
G1 Y11.8913
G1 X96.1023
G0 Z3.0
G0 Y31.0913
G0 Z-5.0
G1 F50.0 Z-8.0
G1 F150.0 Y84.7248
G1 X92.4642
G1 Y31.0913
G1 X96.1023
G1 F50.0 Y26.2913
G1 F150.0 X100.9023
G1 Y89.5248
G1 X87.6642
G1 Y26.2913
G1 X96.1023
G1 F50.0 Y21.4913
G1 F150.0 X105.7023
G1 Y94.3248
G1 X82.8642
G1 Y21.4913
G1 X96.1023
G1 F50.0 Y16.6913
G1 F150.0 X110.5023
G1 Y99.1248
G1 X78.0642
G1 Y16.6913
G1 X96.1023
G1 F50.0 Y11.8913
G1 F150.0 X115.3023
G1 Y103.9248
G1 X73.2642
G1 Y11.8913
G1 X96.1023
G0 Z3.0
G0 Y31.0913
G0 Z-7.0
G1 F50.0 Z-10.0
G1 F150.0 Y84.7248
G1 X92.4642
G1 Y31.0913
G1 X96.1023
G1 F50.0 Y26.2913
G1 F150.0 X100.9023
G1 Y89.5248
G1 X87.6642
G1 Y26.2913
G1 X96.1023
G1 F50.0 Y21.4913
G1 F150.0 X105.7023
G1 Y94.3248
G1 X82.8642
G1 Y21.4913
G1 X96.1023
G1 F50.0 Y16.6913
G1 F150.0 X110.5023
G1 Y99.1248
G1 X78.0642
G1 Y16.6913
G1 X96.1023
G1 F50.0 Y11.8913
G1 F150.0 X115.3023
G1 Y103.9248
G1 X73.2642
G1 Y11.8913
G1 X96.1023
G0 Z3.0
G0 Y31.0913
G0 Z-9.0
G1 F50.0 Z-12.0
G1 F150.0 Y84.7248
G1 X92.4642
G1 Y31.0913
G1 X96.1023
G1 F50.0 Y26.2913
G1 F150.0 X100.9023
G1 Y89.5248
G1 X87.6642
G1 Y26.2913
G1 X96.1023
G1 F50.0 Y21.4913
G1 F150.0 X105.7023
G1 Y94.3248
G1 X82.8642
G1 Y21.4913
G1 X96.1023
G1 F50.0 Y16.6913
G1 F150.0 X110.5023
G1 Y99.1248
G1 X78.0642
G1 Y16.6913
G1 X96.1023
G1 F50.0 Y11.8913
G1 F150.0 X115.3023
G1 Y103.9248
G1 X73.2642
G1 Y11.8913
G1 X96.1023
G0 Z3.0
G0 Y31.0913
G0 Z-11.0
G1 F50.0 Z-13.0
G1 F150.0 Y84.7248
G1 X92.4642
G1 Y31.0913
G1 X96.1023
G1 F50.0 Y26.2913
G1 F150.0 X100.9023
G1 Y89.5248
G1 X87.6642
G1 Y26.2913
G1 X96.1023
G1 F50.0 Y21.4913
G1 F150.0 X105.7023
G1 Y94.3248
G1 X82.8642
G1 Y21.4913
G1 X96.1023
G1 F50.0 Y16.6913
G1 F150.0 X110.5023
G1 Y99.1248
G1 X78.0642
G1 Y16.6913
G1 X96.1023
G1 F50.0 Y11.8913
G1 F150.0 X115.3023
G1 Y103.9248
G1 X73.2642
G1 Y11.8913
G1 X96.1023
G0 Z3.0
M5
M30
