( Made using CamBam - http://www.cambam.co.uk )
( mains monitor case 12/22/2015 2:22:59 PM )
( T6 : 6.0 )
G21 G90 G91.1 G64 G40
G0 Z3.0
( T6 : 6.0 )
T6 M6
( Pocket1 )
G17
M3 S1000
G0 X29.1695 Y31.4912
G0 Z-14.0
G1 F50.0 Z-18.0
G2 F250.0 X30.4382 Y32.765 I20.8874 J-19.5347
G1 Y54.1793
G2 X27.6 Y51.0922 I-22.4145 J17.7593
G1 Y32.8047
G2 X28.9108 Y31.4912 I-19.5762 J-20.8473
G1 X29.1695
G1 F50.0 X31.7988 Y29.0322
G2 F250.0 X34.0382 Y31.1486 I18.2581 J-17.0756
G1 X34.0383 Y84.7524
G2 X30.8661 Y87.9246 I16.0192 J19.1914
G1 X27.246
G2 X33.021 Y71.9412 I-19.2222 J-15.9801
G2 X24.0 Y52.7131 I-24.9972 J-0.0026
G1 Y31.1838
G2 X27.2853 Y27.8912 I-15.9762 J-19.2264
G1 X30.7949
G2 X31.7988 Y29.0322 I19.2619 J-15.9347
G1 F50.0 X34.4281 Y26.5731
G2 F250.0 X37.6382 Y29.383 I15.6288 J-14.6166
G1 X37.6383 Y86.518
G2 X32.6317 Y91.5246 I12.4192 J17.4258
G1 X25.449
G2 X22.2319 Y87.9435 I-17.4253 J12.4182
G2 X29.421 Y71.9413 I-14.208 J-15.999
G2 X20.4 Y54.4838 I-21.3972 J-0.0027
G1 Y29.413
G2 X25.5094 Y24.2912 I-12.3762 J-17.4556
G1 X32.5709
G2 X34.4281 Y26.5731 I17.486 J-12.3347
G1 F50.0 X37.0574 Y24.1141
G2 F250.0 X41.2382 Y27.4169 I12.9995 J-12.1576
G1 X41.2383 Y88.4839
G2 X34.5976 Y95.1246 I8.8192 J15.4599
G1 X23.483
G2 X16.8 Y88.4597 I-15.4593 J8.8182
G1 Y87.4273
G2 X25.821 Y71.9413 I-8.7761 J-15.4828
G2 X16.8 Y56.4557 I-17.7972 J-0.0027
G1 Y27.441
G2 X23.5314 Y20.6912 I-8.7762 J-15.4836
G1 X34.5488
G2 X37.0574 Y24.1141 I15.508 J-8.7347
G1 F50.0 X39.6867 Y21.6551
G2 F250.0 X44.8382 Y25.1614 I10.3702 J-9.6986
G1 X44.8383 Y90.7393
G2 X36.8531 Y98.7246 I5.2192 J13.2044
G1 X21.2274
G2 X13.2 Y90.7225 I-13.2038 J5.2182
G1 Y85.1644
G2 X22.221 Y71.9413 I-5.1761 J-13.2199
G2 X13.2 Y58.7186 I-14.1972 J-0.0028
G1 Y25.178
G2 X21.261 Y17.0912 I-5.1762 J-13.2207
G1 X36.8191
G2 X39.6867 Y21.6551 I13.2378 J-5.1347
G1 F50.0 X42.316 Y19.1961
G2 F250.0 X48.4382 Y22.4309 I7.7409 J-7.2396
G1 X48.4383 Y93.4697
G2 X39.5834 Y102.3246 I1.6192 J10.4741
G1 X18.4969
G2 X9.6 Y93.4632 I-10.4732 J1.6182
G1 Y82.4237
G2 X18.621 Y71.9414 I-1.5761 J-10.4792
G2 X9.6 Y61.4593 I-10.5972 J-0.0028
G1 Y22.4374
G2 X18.5101 Y13.4912 I-1.5762 J-10.48
G1 X39.5699
G2 X42.316 Y19.1961 I10.487 J-1.5347
G1 F50.0 X44.9453 Y16.7371
G2 F250.0 X50.0592 Y18.9552 I5.1116 J-4.7805
G1 X52.0382
G1 X52.0383 Y96.9453
G1 X50.0592
G2 X43.059 Y103.9459 I-0.0017 J6.9985
G1 Y105.9246
G1 X15.0211
G1 Y103.9462
G2 X8.0213 Y96.9453 I-6.9975 J-0.0034
G1 X6.0
G1 Y78.9416
G1 X8.0213
G2 X15.021 Y71.9414 I0.0026 J-6.9971
G2 X8.0213 Y64.9414 I-6.9972 J-0.0029
G1 X6.0
G1 Y18.9552
G1 X8.0213
G2 X15.0217 Y11.9544 I0.0025 J-6.9979
G1 Y9.8912
G1 X43.0582
G1 Y11.9547
G2 X44.9453 Y16.7371 I6.9987 J0.0019
( Pocket2 )
S1000
G0 Z3.0
G0 X93.8642 Y83.3248
G0 Z-12.0
G1 F50.0 Z-16.0
G1 F250.0 Y73.3005
G1 X94.7023
G1 Y83.3248
G1 X93.8642
G1 F50.0 X90.2642
G1 F250.0 Y69.7005
G1 X98.3023
G1 Y86.9248
G1 X90.2642
G1 Y83.3248
G1 F50.0 X86.6642
G1 F250.0 Y66.1005
G1 X101.9023
G1 Y90.5248
G1 X86.6642
G1 Y83.3248
G1 F50.0 X83.0642
G1 F250.0 Y62.5005
G1 X105.5023
G1 Y94.1248
G1 X83.0642
G1 Y83.3248
G1 F50.0 X79.4642
G1 F250.0 Y58.9005
G1 X109.1023
G1 Y97.7248
G1 X79.4642
G1 Y83.3248
G1 F50.0 X75.8642
G1 F250.0 Y55.3005
G1 X112.7023
G1 Y101.3248
G1 X75.8642
G1 Y83.3248
G1 F50.0 X72.2642
G1 F250.0 Y51.7005
G1 X116.3023
G1 Y104.4145
G2 X116.2596 Y104.919 I2.9573 J0.5045
G1 Y104.9248
G1 X72.29
G1 X72.27
G2 X72.2642 I0.0 J3.0
G1 Y104.919
G1 Y104.899
G1 Y83.3248
( Pocket3 )
S1000
G0 Z3.0
G0 X66.8 Y2.8
G0 Z1.0
G1 F50.0 Z-1.0
G1 F250.0 X68.9156
G2 X66.8 Y4.0409 I3.3369 J8.1133
G1 Y2.8
G0 Z3.0
G0 X119.6073
G0 Z1.0
G1 F50.0 Z-1.0
G1 F250.0 X122.2
G1 Y4.4488
G2 X119.6073 Y2.8 I-5.9316 J6.4642
G0 Z3.0
G0 X122.2 Y111.4115
G0 Z1.0
G1 F50.0 Z-1.0
G1 F250.0 Y113.2
G1 X119.243
G2 X122.2 Y111.4115 I-2.9662 J-8.2428
G0 Z3.0
G0 X69.2785 Y113.2
G0 Z1.0
G1 F50.0 Z-1.0
G1 F250.0 X66.8
G1 Y111.8203
G2 X69.2785 Y113.2 I5.4449 J-6.8653
G1 F50.0 Y115.0
G1 F250.0 X65.0
G1 Y1.0
G1 X124.0
G1 Y115.0
G1 X69.2785
G1 F50.0 X70.271 Y111.6392
G2 F250.0 X72.2499 Y111.9246 I1.9739 J-6.6843
G1 X72.2907
G1 X116.303
G2 X116.3228 Y111.9245 I0.0 J-3.0
G2 X121.039 Y110.0431 I-0.0461 J-6.9673
G2 X123.2096 Y105.7756 I-4.7608 J-5.1072
G2 X123.302 Y104.9177 I-3.9084 J-0.8553
G1 Y10.8968
G2 Y10.8901 I-3.0 J0.0
G2 X123.1971 Y9.9872 I-4.0134 J0.0089
G2 X121.2099 Y5.9827 I-6.9138 J0.9356
G2 X117.2055 Y3.9958 I-4.9415 J4.9303
G2 X116.299 Y3.8912 I-0.9104 J3.909
G2 X116.2961 I-0.0029 J3.0
G1 X72.2768
G2 X71.4072 Y3.9848 I-0.0133 J3.9632
G2 X67.1416 Y6.1596 I0.8454 J6.9285
G2 X65.2641 Y10.8792 I5.0961 J4.7605
G2 Y10.8968 I2.9999 J0.0176
G1 Y104.9396
G2 X67.311 Y109.8776 I6.9722 J0.0031
G2 X70.271 Y111.6392 I4.9339 J-4.9226
G0 Z3.0
M5
M30
