( Made using CamBam - http://www.cambam.co.uk )
( mains monitor case 12/22/2015 2:23:09 PM )
( T6 : 6.0 )
G21 G90 G91.1 G64 G40
G0 Z3.0
( T6 : 6.0 )
T6 M6
( Profile1 )
G17
M3 S1000
G0 X52.017 Y118.7589
G0 Z1.0
G1 F50.0 Z-3.0
G2 F150.0 X58.1114 Y115.8787 I-0.9589 J-9.917
G2 X61.0383 Y108.82 I-7.0347 J-7.0531
G1 X61.0381 Y7.0162
G2 Y6.9969 I-3.0 J0.0
G2 X59.5687 Y1.8525 I-9.9654 J0.0644
G2 X55.693 Y-1.7946 I-8.6072 J5.2639
G1 X55.6928 Y-1.7947
G2 X52.3886 Y-2.8573 I-4.6244 J8.7109
G2 X51.6695 Y-2.9611 I-1.3425 J6.7556
G2 X50.0567 Y-4.1873 I-5.3197 J5.3236
G1 X50.0566
G1 X50.0567
G2 X46.3728 Y-5.1551 I-3.6749 J6.493
G2 X42.6898 Y-4.1866 I-0.0077 J7.4578
G2 X42.689 Y-4.1861 I1.4785 J2.6104
G2 X41.1073 Y-2.9894 I3.7126 J6.5504
G1 X16.7161
G2 X15.1317 Y-4.1873 I-5.2913 J5.3518
G1 X15.1316
G1 X15.1317
G2 X11.4473 Y-5.1551 I-3.6749 J6.493
G2 X7.7657 Y-4.1872 I-0.0059 J7.4635
G2 X7.7638 Y-4.1861 I1.4775 J2.6109
G2 X6.1268 Y-2.9341 I3.7138 J6.5516
G2 X5.5679 Y-2.8405 I0.8796 J6.968
G2 X-2.8497 Y5.5732 I1.4552 J9.8735
G2 X-3.0 Y7.0148 I6.8708 J1.445
G2 Y7.0162 I3.0 J0.0014
G1 X-2.9998 Y108.7995
G2 Y108.8069 I3.0 J0.0
G2 X-2.8684 Y110.1502 I7.1102 J-0.0175
G2 X-0.8348 Y114.9562 I9.8451 J-1.3326
G2 X3.4249 Y118.1269 I7.9393 J-6.2196
G2 X3.4284 Y118.1282 I1.0945 J-2.7932
G2 X5.7779 Y118.7264 I3.5956 J-9.2096
G2 X7.4768 Y120.1841 I5.6921 J-4.9149
G2 X11.4476 Y121.3238 I3.964 J-6.3237
G2 X15.4199 Y120.1848 I0.009 J-7.4644
G2 X17.0513 Y118.8051 I-3.9929 J-6.3757
G1 X40.7721
G2 X42.4019 Y120.1841 I5.6242 J-4.9946
G1 X42.4021 Y120.1842
G2 X46.3722 Y121.3238 I3.9649 J-6.3277
G2 X50.3449 Y120.1848 I0.0094 J-7.4644
G2 X52.017 Y118.7589 I-3.9929 J-6.3757
G1 F50.0 Z-6.0
G2 F150.0 X58.1114 Y115.8787 I-0.9589 J-9.917
G2 X61.0383 Y108.82 I-7.0347 J-7.0531
G1 X61.0381 Y7.0162
G2 Y6.9969 I-3.0 J0.0
G2 X59.5687 Y1.8525 I-9.9654 J0.0644
G2 X55.693 Y-1.7946 I-8.6072 J5.2639
G1 X55.6928 Y-1.7947
G2 X52.3886 Y-2.8573 I-4.6244 J8.7109
G2 X51.6695 Y-2.9611 I-1.3425 J6.7556
G2 X50.0567 Y-4.1873 I-5.3197 J5.3236
G1 X50.0566
G1 X50.0567
G2 X46.3728 Y-5.1551 I-3.6749 J6.493
G2 X42.6898 Y-4.1866 I-0.0077 J7.4578
G2 X42.689 Y-4.1861 I1.4785 J2.6104
G2 X41.1073 Y-2.9894 I3.7126 J6.5504
G1 X16.7161
G2 X15.1317 Y-4.1873 I-5.2913 J5.3518
G1 X15.1316
G1 X15.1317
G2 X11.4473 Y-5.1551 I-3.6749 J6.493
G2 X7.7657 Y-4.1872 I-0.0059 J7.4635
G2 X7.7638 Y-4.1861 I1.4775 J2.6109
G2 X6.1268 Y-2.9341 I3.7138 J6.5516
G2 X5.5679 Y-2.8405 I0.8796 J6.968
G2 X-2.8497 Y5.5732 I1.4552 J9.8735
G2 X-3.0 Y7.0148 I6.8708 J1.445
G2 Y7.0162 I3.0 J0.0014
G1 X-2.9998 Y108.7995
G2 Y108.8069 I3.0 J0.0
G2 X-2.8684 Y110.1502 I7.1102 J-0.0175
G2 X-0.8348 Y114.9562 I9.8451 J-1.3326
G2 X3.4249 Y118.1269 I7.9393 J-6.2196
G2 X3.4284 Y118.1282 I1.0945 J-2.7932
G2 X5.7779 Y118.7264 I3.5956 J-9.2096
G2 X7.4768 Y120.1841 I5.6921 J-4.9149
G2 X11.4476 Y121.3238 I3.964 J-6.3237
G2 X15.4199 Y120.1848 I0.009 J-7.4644
G2 X17.0513 Y118.8051 I-3.9929 J-6.3757
G1 X40.7721
G2 X42.4019 Y120.1841 I5.6242 J-4.9946
G1 X42.4021 Y120.1842
G2 X46.3722 Y121.3238 I3.9649 J-6.3277
G2 X50.3449 Y120.1848 I0.0094 J-7.4644
G2 X52.017 Y118.7589 I-3.9929 J-6.3757
G1 F50.0 Z-9.0
G2 F150.0 X58.1114 Y115.8787 I-0.9589 J-9.917
G2 X61.0383 Y108.82 I-7.0347 J-7.0531
G1 X61.0381 Y7.0162
G2 Y6.9969 I-3.0 J0.0
G2 X59.5687 Y1.8525 I-9.9654 J0.0644
G2 X55.693 Y-1.7946 I-8.6072 J5.2639
G1 X55.6928 Y-1.7947
G2 X52.3886 Y-2.8573 I-4.6244 J8.7109
G2 X51.6695 Y-2.9611 I-1.3425 J6.7556
G2 X50.0567 Y-4.1873 I-5.3197 J5.3236
G1 X50.0566
G1 X50.0567
G2 X46.3728 Y-5.1551 I-3.6749 J6.493
G2 X42.6898 Y-4.1866 I-0.0077 J7.4578
G2 X42.689 Y-4.1861 I1.4785 J2.6104
G2 X41.1073 Y-2.9894 I3.7126 J6.5504
G1 X16.7161
G2 X15.1317 Y-4.1873 I-5.2913 J5.3518
G1 X15.1316
G1 X15.1317
G2 X11.4473 Y-5.1551 I-3.6749 J6.493
G2 X7.7657 Y-4.1872 I-0.0059 J7.4635
G2 X7.7638 Y-4.1861 I1.4775 J2.6109
G2 X6.1268 Y-2.9341 I3.7138 J6.5516
G2 X5.5679 Y-2.8405 I0.8796 J6.968
G2 X-2.8497 Y5.5732 I1.4552 J9.8735
G2 X-3.0 Y7.0148 I6.8708 J1.445
G2 Y7.0162 I3.0 J0.0014
G1 X-2.9998 Y108.7995
G2 Y108.8069 I3.0 J0.0
G2 X-2.8684 Y110.1502 I7.1102 J-0.0175
G2 X-0.8348 Y114.9562 I9.8451 J-1.3326
G2 X3.4249 Y118.1269 I7.9393 J-6.2196
G2 X3.4284 Y118.1282 I1.0945 J-2.7932
G2 X5.7779 Y118.7264 I3.5956 J-9.2096
G2 X7.4768 Y120.1841 I5.6921 J-4.9149
G2 X11.4476 Y121.3238 I3.964 J-6.3237
G2 X15.4199 Y120.1848 I0.009 J-7.4644
G2 X17.0513 Y118.8051 I-3.9929 J-6.3757
G1 X40.7721
G2 X42.4019 Y120.1841 I5.6242 J-4.9946
G1 X42.4021 Y120.1842
G2 X46.3722 Y121.3238 I3.9649 J-6.3277
G2 X50.3449 Y120.1848 I0.0094 J-7.4644
G2 X52.017 Y118.7589 I-3.9929 J-6.3757
G1 F50.0 Z-12.0
G2 F150.0 X58.1114 Y115.8787 I-0.9589 J-9.917
G2 X61.0383 Y108.82 I-7.0347 J-7.0531
G1 X61.0381 Y7.0162
G2 Y6.9969 I-3.0 J0.0
G2 X59.5687 Y1.8525 I-9.9654 J0.0644
G2 X55.693 Y-1.7946 I-8.6072 J5.2639
G1 X55.6928 Y-1.7947
G2 X52.3886 Y-2.8573 I-4.6244 J8.7109
G2 X51.6695 Y-2.9611 I-1.3425 J6.7556
G2 X50.0567 Y-4.1873 I-5.3197 J5.3236
G1 X50.0566
G1 X50.0567
G2 X46.3728 Y-5.1551 I-3.6749 J6.493
G2 X42.6898 Y-4.1866 I-0.0077 J7.4578
G2 X42.689 Y-4.1861 I1.4785 J2.6104
G2 X41.1073 Y-2.9894 I3.7126 J6.5504
G1 X16.7161
G2 X15.1317 Y-4.1873 I-5.2913 J5.3518
G1 X15.1316
G1 X15.1317
G2 X11.4473 Y-5.1551 I-3.6749 J6.493
G2 X7.7657 Y-4.1872 I-0.0059 J7.4635
G2 X7.7638 Y-4.1861 I1.4775 J2.6109
G2 X6.1268 Y-2.9341 I3.7138 J6.5516
G2 X5.5679 Y-2.8405 I0.8796 J6.968
G2 X-2.8497 Y5.5732 I1.4552 J9.8735
G2 X-3.0 Y7.0148 I6.8708 J1.445
G2 Y7.0162 I3.0 J0.0014
G1 X-2.9998 Y108.7995
G2 Y108.8069 I3.0 J0.0
G2 X-2.8684 Y110.1502 I7.1102 J-0.0175
G2 X-0.8348 Y114.9562 I9.8451 J-1.3326
G2 X3.4249 Y118.1269 I7.9393 J-6.2196
G2 X3.4284 Y118.1282 I1.0945 J-2.7932
G2 X5.7779 Y118.7264 I3.5956 J-9.2096
G2 X7.4768 Y120.1841 I5.6921 J-4.9149
G2 X11.4476 Y121.3238 I3.964 J-6.3237
G2 X15.4199 Y120.1848 I0.009 J-7.4644
G2 X17.0513 Y118.8051 I-3.9929 J-6.3757
G1 X40.7721
G2 X42.4019 Y120.1841 I5.6242 J-4.9946
G1 X42.4021 Y120.1842
G2 X46.3722 Y121.3238 I3.9649 J-6.3277
G2 X50.3449 Y120.1848 I0.0094 J-7.4644
G2 X52.017 Y118.7589 I-3.9929 J-6.3757
G1 F50.0 Z-15.0
G2 F150.0 X58.1114 Y115.8787 I-0.9589 J-9.917
G2 X61.0383 Y108.82 I-7.0347 J-7.0531
G1 X61.0381 Y7.0162
G2 Y6.9969 I-3.0 J0.0
G2 X59.5687 Y1.8525 I-9.9654 J0.0644
G2 X55.693 Y-1.7946 I-8.6072 J5.2639
G1 X55.6928 Y-1.7947
G2 X52.3886 Y-2.8573 I-4.6244 J8.7109
G2 X51.6695 Y-2.9611 I-1.3425 J6.7556
G2 X50.0567 Y-4.1873 I-5.3197 J5.3236
G1 X50.0566
G1 X50.0567
G2 X46.3728 Y-5.1551 I-3.6749 J6.493
G2 X42.6898 Y-4.1866 I-0.0077 J7.4578
G2 X42.689 Y-4.1861 I1.4785 J2.6104
G2 X41.1073 Y-2.9894 I3.7126 J6.5504
G1 X16.7161
G2 X15.1317 Y-4.1873 I-5.2913 J5.3518
G1 X15.1316
G1 X15.1317
G2 X11.4473 Y-5.1551 I-3.6749 J6.493
G2 X7.7657 Y-4.1872 I-0.0059 J7.4635
G2 X7.7638 Y-4.1861 I1.4775 J2.6109
G2 X6.1268 Y-2.9341 I3.7138 J6.5516
G2 X5.5679 Y-2.8405 I0.8796 J6.968
G2 X-2.8497 Y5.5732 I1.4552 J9.8735
G2 X-3.0 Y7.0148 I6.8708 J1.445
G2 Y7.0162 I3.0 J0.0014
G1 X-2.9998 Y108.7995
G2 Y108.8069 I3.0 J0.0
G2 X-2.8684 Y110.1502 I7.1102 J-0.0175
G2 X-0.8348 Y114.9562 I9.8451 J-1.3326
G2 X3.4249 Y118.1269 I7.9393 J-6.2196
G2 X3.4284 Y118.1282 I1.0945 J-2.7932
G2 X5.7779 Y118.7264 I3.5956 J-9.2096
G2 X7.4768 Y120.1841 I5.6921 J-4.9149
G2 X11.4476 Y121.3238 I3.964 J-6.3237
G2 X15.4199 Y120.1848 I0.009 J-7.4644
G2 X17.0513 Y118.8051 I-3.9929 J-6.3757
G1 X40.7721
G2 X42.4019 Y120.1841 I5.6242 J-4.9946
G1 X42.4021 Y120.1842
G2 X46.3722 Y121.3238 I3.9649 J-6.3277
G2 X50.3449 Y120.1848 I0.0094 J-7.4644
G2 X52.017 Y118.7589 I-3.9929 J-6.3757
G1 F50.0 Z-18.0
G2 F150.0 X58.1114 Y115.8787 I-0.9589 J-9.917
G2 X61.0383 Y108.82 I-7.0347 J-7.0531
G1 X61.0381 Y7.0162
G2 Y6.9969 I-3.0 J0.0
G2 X59.5687 Y1.8525 I-9.9654 J0.0644
G2 X55.693 Y-1.7946 I-8.6072 J5.2639
G1 X55.6928 Y-1.7947
G2 X52.3886 Y-2.8573 I-4.6244 J8.7109
G2 X51.6695 Y-2.9611 I-1.3425 J6.7556
G2 X50.0567 Y-4.1873 I-5.3197 J5.3236
G1 X50.0566
G1 X50.0567
G2 X46.3728 Y-5.1551 I-3.6749 J6.493
G2 X42.6898 Y-4.1866 I-0.0077 J7.4578
G2 X42.689 Y-4.1861 I1.4785 J2.6104
G2 X41.1073 Y-2.9894 I3.7126 J6.5504
G1 X16.7161
G2 X15.1317 Y-4.1873 I-5.2913 J5.3518
G1 X15.1316
G1 X15.1317
G2 X11.4473 Y-5.1551 I-3.6749 J6.493
G2 X7.7657 Y-4.1872 I-0.0059 J7.4635
G2 X7.7638 Y-4.1861 I1.4775 J2.6109
G2 X6.1268 Y-2.9341 I3.7138 J6.5516
G2 X5.5679 Y-2.8405 I0.8796 J6.968
G2 X-2.8497 Y5.5732 I1.4552 J9.8735
G2 X-3.0 Y7.0148 I6.8708 J1.445
G2 Y7.0162 I3.0 J0.0014
G1 X-2.9998 Y108.7995
G2 Y108.8069 I3.0 J0.0
G2 X-2.8684 Y110.1502 I7.1102 J-0.0175
G2 X-0.8348 Y114.9562 I9.8451 J-1.3326
G2 X3.4249 Y118.1269 I7.9393 J-6.2196
G2 X3.4284 Y118.1282 I1.0945 J-2.7932
G2 X5.7779 Y118.7264 I3.5956 J-9.2096
G2 X7.4768 Y120.1841 I5.6921 J-4.9149
G2 X11.4476 Y121.3238 I3.964 J-6.3237
G2 X15.4199 Y120.1848 I0.009 J-7.4644
G2 X17.0513 Y118.8051 I-3.9929 J-6.3757
G1 X40.7721
G2 X42.4019 Y120.1841 I5.6242 J-4.9946
G1 X42.4021 Y120.1842
G2 X46.3722 Y121.3238 I3.9649 J-6.3277
G2 X50.3449 Y120.1848 I0.0094 J-7.4644
G2 X52.017 Y118.7589 I-3.9929 J-6.3757
G1 F50.0 Z-21.0
G2 F150.0 X58.1114 Y115.8787 I-0.9589 J-9.917
G2 X61.0383 Y108.82 I-7.0347 J-7.0531
G1 X61.0381 Y7.0162
G2 Y6.9969 I-3.0 J0.0
G2 X59.5687 Y1.8525 I-9.9654 J0.0644
G2 X55.693 Y-1.7946 I-8.6072 J5.2639
G1 X55.6928 Y-1.7947
G2 X52.3886 Y-2.8573 I-4.6244 J8.7109
G2 X51.6695 Y-2.9611 I-1.3425 J6.7556
G2 X50.0567 Y-4.1873 I-5.3197 J5.3236
G1 X50.0566
G1 X50.0567
G2 X46.3728 Y-5.1551 I-3.6749 J6.493
G2 X42.6898 Y-4.1866 I-0.0077 J7.4578
G2 X42.689 Y-4.1861 I1.4785 J2.6104
G2 X41.1073 Y-2.9894 I3.7126 J6.5504
G1 X16.7161
G2 X15.1317 Y-4.1873 I-5.2913 J5.3518
G1 X15.1316
G1 X15.1317
G2 X11.4473 Y-5.1551 I-3.6749 J6.493
G2 X7.7657 Y-4.1872 I-0.0059 J7.4635
G2 X7.7638 Y-4.1861 I1.4775 J2.6109
G2 X6.1268 Y-2.9341 I3.7138 J6.5516
G2 X5.5679 Y-2.8405 I0.8796 J6.968
G2 X-2.8497 Y5.5732 I1.4552 J9.8735
G2 X-3.0 Y7.0148 I6.8708 J1.445
G2 Y7.0162 I3.0 J0.0014
G1 X-2.9998 Y108.7995
G2 Y108.8069 I3.0 J0.0
G2 X-2.8684 Y110.1502 I7.1102 J-0.0175
G2 X-0.8348 Y114.9562 I9.8451 J-1.3326
G2 X3.4249 Y118.1269 I7.9393 J-6.2196
G2 X3.4284 Y118.1282 I1.0945 J-2.7932
G2 X5.7779 Y118.7264 I3.5956 J-9.2096
G2 X7.4768 Y120.1841 I5.6921 J-4.9149
G2 X11.4476 Y121.3238 I3.964 J-6.3237
G2 X15.4199 Y120.1848 I0.009 J-7.4644
G2 X17.0513 Y118.8051 I-3.9929 J-6.3757
G1 X40.7721
G2 X42.4019 Y120.1841 I5.6242 J-4.9946
G1 X42.4021 Y120.1842
G2 X46.3722 Y121.3238 I3.9649 J-6.3277
G2 X50.3449 Y120.1848 I0.0094 J-7.4644
G2 X52.017 Y118.7589 I-3.9929 J-6.3757
G1 F50.0 Z-22.0
G2 F150.0 X58.1114 Y115.8787 I-0.9589 J-9.917
G2 X61.0383 Y108.82 I-7.0347 J-7.0531
G1 X61.0381 Y7.0162
G2 Y6.9969 I-3.0 J0.0
G2 X59.5687 Y1.8525 I-9.9654 J0.0644
G2 X55.693 Y-1.7946 I-8.6072 J5.2639
G1 X55.6928 Y-1.7947
G2 X52.3886 Y-2.8573 I-4.6244 J8.7109
G2 X51.6695 Y-2.9611 I-1.3425 J6.7556
G2 X50.0567 Y-4.1873 I-5.3197 J5.3236
G1 X50.0566
G1 X50.0567
G2 X46.3728 Y-5.1551 I-3.6749 J6.493
G2 X42.6898 Y-4.1866 I-0.0077 J7.4578
G2 X42.689 Y-4.1861 I1.4785 J2.6104
G2 X41.1073 Y-2.9894 I3.7126 J6.5504
G1 X16.7161
G2 X15.1317 Y-4.1873 I-5.2913 J5.3518
G1 X15.1316
G1 X15.1317
G2 X11.4473 Y-5.1551 I-3.6749 J6.493
G2 X7.7657 Y-4.1872 I-0.0059 J7.4635
G2 X7.7638 Y-4.1861 I1.4775 J2.6109
G2 X6.1268 Y-2.9341 I3.7138 J6.5516
G2 X5.5679 Y-2.8405 I0.8796 J6.968
G2 X-2.8497 Y5.5732 I1.4552 J9.8735
G2 X-3.0 Y7.0148 I6.8708 J1.445
G2 Y7.0162 I3.0 J0.0014
G1 X-2.9998 Y108.7995
G2 Y108.8069 I3.0 J0.0
G2 X-2.8684 Y110.1502 I7.1102 J-0.0175
G2 X-0.8348 Y114.9562 I9.8451 J-1.3326
G2 X3.4249 Y118.1269 I7.9393 J-6.2196
G2 X3.4284 Y118.1282 I1.0945 J-2.7932
G2 X5.7779 Y118.7264 I3.5956 J-9.2096
G2 X7.4768 Y120.1841 I5.6921 J-4.9149
G2 X11.4476 Y121.3238 I3.964 J-6.3237
G2 X15.4199 Y120.1848 I0.009 J-7.4644
G2 X17.0513 Y118.8051 I-3.9929 J-6.3757
G1 X40.7721
G2 X42.4019 Y120.1841 I5.6242 J-4.9946
G1 X42.4021 Y120.1842
G2 X46.3722 Y121.3238 I3.9649 J-6.3277
G2 X50.3449 Y120.1848 I0.0094 J-7.4644
G2 X52.017 Y118.7589 I-3.9929 J-6.3757
( Profile2 )
S1000
G0 Z3.0
G0 X126.302 Y108.7995
G0 Z1.0
G1 F50.0 Z-3.0
G1 F150.0 Y7.0181
G2 X126.1514 Y5.5708 I-6.9543 J-0.0077
G2 X117.734 Y-2.8405 I-9.872 J1.4618
G2 X116.2973 Y-2.9894 I-1.4395 J6.8874
G2 X116.2961 I-0.0012 J3.0
G1 X72.27
G2 X72.2626 I0.0 J3.0
G2 X70.9196 Y-2.858 I0.0175 J7.1102
G2 X67.6125 Y-1.7963 I1.3275 J9.8164
G2 X67.6115 Y-1.7958 I1.4036 J2.6514
G2 X64.8008 Y0.4128 I4.7067 J8.8829
G2 X62.2641 Y6.9936 I7.4637 J6.6562
G2 Y7.0162 I2.9999 J0.0226
G1 Y108.82
G2 X65.1908 Y115.8786 I9.9622 J0.0053
G2 X72.2496 Y118.8051 I7.053 J-7.0356
G1 X116.3223
G2 X116.3434 Y118.805 I0.0 J-3.0
G2 X121.4844 Y117.326 I-0.0699 J-9.9171
G2 X125.1133 Y113.4509 I-5.2946 J-8.5951
G2 X125.1147 Y113.4483 I-2.6519 J-1.4027
G2 X126.1714 Y110.1471 I-8.7658 J-4.6256
G2 X126.302 Y108.8106 I-7.0439 J-1.363
G2 Y108.7995 I-3.0 J-0.0111
G1 F50.0 Z-6.0
G1 F150.0 Y7.0181
G2 X126.1514 Y5.5708 I-6.9543 J-0.0077
G2 X117.734 Y-2.8405 I-9.872 J1.4618
G2 X116.2973 Y-2.9894 I-1.4395 J6.8874
G2 X116.2961 I-0.0012 J3.0
G1 X72.27
G2 X72.2626 I0.0 J3.0
G2 X70.9196 Y-2.858 I0.0175 J7.1102
G2 X67.6125 Y-1.7963 I1.3275 J9.8164
G2 X67.6115 Y-1.7958 I1.4036 J2.6514
G2 X64.8008 Y0.4128 I4.7067 J8.8829
G2 X62.2641 Y6.9936 I7.4637 J6.6562
G2 Y7.0162 I2.9999 J0.0226
G1 Y108.82
G2 X65.1908 Y115.8786 I9.9622 J0.0053
G2 X72.2496 Y118.8051 I7.053 J-7.0356
G1 X116.3223
G2 X116.3434 Y118.805 I0.0 J-3.0
G2 X121.4844 Y117.326 I-0.0699 J-9.9171
G2 X125.1133 Y113.4509 I-5.2946 J-8.5951
G2 X125.1147 Y113.4483 I-2.6519 J-1.4027
G2 X126.1714 Y110.1471 I-8.7658 J-4.6256
G2 X126.302 Y108.8106 I-7.0439 J-1.363
G2 Y108.7995 I-3.0 J-0.0111
G1 F50.0 Z-9.0
G1 F150.0 Y7.0181
G2 X126.1514 Y5.5708 I-6.9543 J-0.0077
G2 X117.734 Y-2.8405 I-9.872 J1.4618
G2 X116.2973 Y-2.9894 I-1.4395 J6.8874
G2 X116.2961 I-0.0012 J3.0
G1 X72.27
G2 X72.2626 I0.0 J3.0
G2 X70.9196 Y-2.858 I0.0175 J7.1102
G2 X67.6125 Y-1.7963 I1.3275 J9.8164
G2 X67.6115 Y-1.7958 I1.4036 J2.6514
G2 X64.8008 Y0.4128 I4.7067 J8.8829
G2 X62.2641 Y6.9936 I7.4637 J6.6562
G2 Y7.0162 I2.9999 J0.0226
G1 Y108.82
G2 X65.1908 Y115.8786 I9.9622 J0.0053
G2 X72.2496 Y118.8051 I7.053 J-7.0356
G1 X116.3223
G2 X116.3434 Y118.805 I0.0 J-3.0
G2 X121.4844 Y117.326 I-0.0699 J-9.9171
G2 X125.1133 Y113.4509 I-5.2946 J-8.5951
G2 X125.1147 Y113.4483 I-2.6519 J-1.4027
G2 X126.1714 Y110.1471 I-8.7658 J-4.6256
G2 X126.302 Y108.8106 I-7.0439 J-1.363
G2 Y108.7995 I-3.0 J-0.0111
G1 F50.0 Z-12.0
G1 F150.0 Y7.0181
G2 X126.1514 Y5.5708 I-6.9543 J-0.0077
G2 X117.734 Y-2.8405 I-9.872 J1.4618
G2 X116.2973 Y-2.9894 I-1.4395 J6.8874
G2 X116.2961 I-0.0012 J3.0
G1 X72.27
G2 X72.2626 I0.0 J3.0
G2 X70.9196 Y-2.858 I0.0175 J7.1102
G2 X67.6125 Y-1.7963 I1.3275 J9.8164
G2 X67.6115 Y-1.7958 I1.4036 J2.6514
G2 X64.8008 Y0.4128 I4.7067 J8.8829
G2 X62.2641 Y6.9936 I7.4637 J6.6562
G2 Y7.0162 I2.9999 J0.0226
G1 Y108.82
G2 X65.1908 Y115.8786 I9.9622 J0.0053
G2 X72.2496 Y118.8051 I7.053 J-7.0356
G1 X116.3223
G2 X116.3434 Y118.805 I0.0 J-3.0
G2 X121.4844 Y117.326 I-0.0699 J-9.9171
G2 X125.1133 Y113.4509 I-5.2946 J-8.5951
G2 X125.1147 Y113.4483 I-2.6519 J-1.4027
G2 X126.1714 Y110.1471 I-8.7658 J-4.6256
G2 X126.302 Y108.8106 I-7.0439 J-1.363
G2 Y108.7995 I-3.0 J-0.0111
G1 F50.0 Z-15.0
G1 F150.0 Y7.0181
G2 X126.1514 Y5.5708 I-6.9543 J-0.0077
G2 X117.734 Y-2.8405 I-9.872 J1.4618
G2 X116.2973 Y-2.9894 I-1.4395 J6.8874
G2 X116.2961 I-0.0012 J3.0
G1 X72.27
G2 X72.2626 I0.0 J3.0
G2 X70.9196 Y-2.858 I0.0175 J7.1102
G2 X67.6125 Y-1.7963 I1.3275 J9.8164
G2 X67.6115 Y-1.7958 I1.4036 J2.6514
G2 X64.8008 Y0.4128 I4.7067 J8.8829
G2 X62.2641 Y6.9936 I7.4637 J6.6562
G2 Y7.0162 I2.9999 J0.0226
G1 Y108.82
G2 X65.1908 Y115.8786 I9.9622 J0.0053
G2 X72.2496 Y118.8051 I7.053 J-7.0356
G1 X116.3223
G2 X116.3434 Y118.805 I0.0 J-3.0
G2 X121.4844 Y117.326 I-0.0699 J-9.9171
G2 X125.1133 Y113.4509 I-5.2946 J-8.5951
G2 X125.1147 Y113.4483 I-2.6519 J-1.4027
G2 X126.1714 Y110.1471 I-8.7658 J-4.6256
G2 X126.302 Y108.8106 I-7.0439 J-1.363
G2 Y108.7995 I-3.0 J-0.0111
G1 F50.0 Z-18.0
G1 F150.0 Y7.0181
G2 X126.1514 Y5.5708 I-6.9543 J-0.0077
G2 X117.734 Y-2.8405 I-9.872 J1.4618
G2 X116.2973 Y-2.9894 I-1.4395 J6.8874
G2 X116.2961 I-0.0012 J3.0
G1 X72.27
G2 X72.2626 I0.0 J3.0
G2 X70.9196 Y-2.858 I0.0175 J7.1102
G2 X67.6125 Y-1.7963 I1.3275 J9.8164
G2 X67.6115 Y-1.7958 I1.4036 J2.6514
G2 X64.8008 Y0.4128 I4.7067 J8.8829
G2 X62.2641 Y6.9936 I7.4637 J6.6562
G2 Y7.0162 I2.9999 J0.0226
G1 Y108.82
G2 X65.1908 Y115.8786 I9.9622 J0.0053
G2 X72.2496 Y118.8051 I7.053 J-7.0356
G1 X116.3223
G2 X116.3434 Y118.805 I0.0 J-3.0
G2 X121.4844 Y117.326 I-0.0699 J-9.9171
G2 X125.1133 Y113.4509 I-5.2946 J-8.5951
G2 X125.1147 Y113.4483 I-2.6519 J-1.4027
G2 X126.1714 Y110.1471 I-8.7658 J-4.6256
G2 X126.302 Y108.8106 I-7.0439 J-1.363
G2 Y108.7995 I-3.0 J-0.0111
G1 F50.0 Z-21.0
G1 F150.0 Y7.0181
G2 X126.1514 Y5.5708 I-6.9543 J-0.0077
G2 X117.734 Y-2.8405 I-9.872 J1.4618
G2 X116.2973 Y-2.9894 I-1.4395 J6.8874
G2 X116.2961 I-0.0012 J3.0
G1 X72.27
G2 X72.2626 I0.0 J3.0
G2 X70.9196 Y-2.858 I0.0175 J7.1102
G2 X67.6125 Y-1.7963 I1.3275 J9.8164
G2 X67.6115 Y-1.7958 I1.4036 J2.6514
G2 X64.8008 Y0.4128 I4.7067 J8.8829
G2 X62.2641 Y6.9936 I7.4637 J6.6562
G2 Y7.0162 I2.9999 J0.0226
G1 Y108.82
G2 X65.1908 Y115.8786 I9.9622 J0.0053
G2 X72.2496 Y118.8051 I7.053 J-7.0356
G1 X116.3223
G2 X116.3434 Y118.805 I0.0 J-3.0
G2 X121.4844 Y117.326 I-0.0699 J-9.9171
G2 X125.1133 Y113.4509 I-5.2946 J-8.5951
G2 X125.1147 Y113.4483 I-2.6519 J-1.4027
G2 X126.1714 Y110.1471 I-8.7658 J-4.6256
G2 X126.302 Y108.8106 I-7.0439 J-1.363
G2 Y108.7995 I-3.0 J-0.0111
G1 F50.0 Z-22.0
G1 F150.0 Y7.0181
G2 X126.1514 Y5.5708 I-6.9543 J-0.0077
G2 X117.734 Y-2.8405 I-9.872 J1.4618
G2 X116.2973 Y-2.9894 I-1.4395 J6.8874
G2 X116.2961 I-0.0012 J3.0
G1 X72.27
G2 X72.2626 I0.0 J3.0
G2 X70.9196 Y-2.858 I0.0175 J7.1102
G2 X67.6125 Y-1.7963 I1.3275 J9.8164
G2 X67.6115 Y-1.7958 I1.4036 J2.6514
G2 X64.8008 Y0.4128 I4.7067 J8.8829
G2 X62.2641 Y6.9936 I7.4637 J6.6562
G2 Y7.0162 I2.9999 J0.0226
G1 Y108.82
G2 X65.1908 Y115.8786 I9.9622 J0.0053
G2 X72.2496 Y118.8051 I7.053 J-7.0356
G1 X116.3223
G2 X116.3434 Y118.805 I0.0 J-3.0
G2 X121.4844 Y117.326 I-0.0699 J-9.9171
G2 X125.1133 Y113.4509 I-5.2946 J-8.5951
G2 X125.1147 Y113.4483 I-2.6519 J-1.4027
G2 X126.1714 Y110.1471 I-8.7658 J-4.6256
G2 X126.302 Y108.8106 I-7.0439 J-1.363
G2 Y108.7995 I-3.0 J-0.0111
G0 Z3.0
M5
M30
